img/logos/netbeans.svg

<?xml version="1.0" encoding="UTF-8" standalone="no"?>
<svg width="256px" height="271px" viewBox="0 0 256 271" version="1.1" xmlns="http://www.w3.org/2000/svg" xmlns:xlink="http://www.w3.org/1999/xlink" preserveAspectRatio="xMinYMin meet">
	<g fill="#E92200">
		<path d="M23.2214242,60.2286509 C31.0918406,62.2587428 62.4150004,71.7203123 81.2223083,77.4637044 C100.029616,83.1997809 114.106139,86.9124715 125.043031,89.9606576 C136.071368,93.1191879 135.248358,101.739458 126.621991,100.995091 C118.001721,100.159888 107.808587,95.5266453 97.6215492,91.5335216 C87.4223187,87.6568385 55.3614979,78.2922014 38.864715,72.7329197 C22.4776668,67.2638643 18.4845431,67.2638643 16.1801145,64.1126495 C13.8573967,61.0577575 15.3449115,58.1802698 23.2214242,60.2286509"></path>
		<path d="M140.794227,94.6932712 C147.829441,93.9495138 148.573198,100.990824 147.000334,104.886405 C145.42747,108.775891 137.648499,110.348755 136.075635,106.465366 C133.661472,100.990824 133.661472,95.5223778 140.794227,94.6932712"></path>
		<path d="M233.174383,38.2628126 C228.535044,42.2498399 214.367075,50.8701101 204.25929,57.9120295 C194.072252,64.9527296 175.258848,77.4624851 169.698957,80.6082131 C164.242703,83.7539411 157.201394,87.6556193 152.470609,91.5329119 C147.83127,95.5260356 149.41023,102.567345 156.457636,100.159888 C163.486753,97.8432667 170.540256,93.9537813 175.258848,89.2162905 C179.892091,84.4976985 184.616779,81.3464838 189.341467,78.2915917 C194.072252,75.1458637 230.114004,48.4620431 237.155314,43.725162 C244.20272,35.9461912 237.899071,34.3678404 233.174383,38.2628126"></path>
		<path d="M251.248907,25.0135671 C255.132296,25.0135671 256.70516,33.6338372 252.821771,35.9443623 C248.932285,38.2609837 243.366298,38.2609837 243.366298,30.4820129 C243.366298,22.5994038 247.353325,25.0135671 251.248907,25.0135671"></path>
		<path d="M248.930456,41.4097599 C251.990835,41.4097599 253.557603,47.719505 252.826038,52.438097 C251.990835,57.0713398 253.557603,87.6507422 254.392806,98.5815373 C255.136563,109.609874 255.136563,114.340659 253.557603,118.230145 C251.990835,122.11963 253.557603,128.417182 253.557603,138.610317 C253.557603,148.809547 251.990835,162.056964 251.247078,167.616855 C250.417971,173.079204 249.674214,176.96869 246.510197,176.231029 C243.364469,175.401922 243.364469,171.500244 243.364469,165.196595 C243.364469,158.996585 243.364469,126.009115 244.205768,118.230145 C244.931236,110.353632 244.931236,107.201807 244.931236,100.989604 L244.931236,51.6089904 C244.931236,45.3053416 245.778632,41.4097599 248.930456,41.4097599"></path>
		<path d="M246.510197,182.438964 C251.247078,181.689111 252.826038,190.309381 250.417971,192.626002 C248.089157,195.040166 242.614615,194.204963 241.047847,190.309381 C239.474983,186.419895 241.791605,183.274167 246.510197,182.438964"></path>
		<path d="M6.53077671,53.182464 C10.8043335,52.5301522 12.18821,60.2298701 8.67060331,62.9976231 C5.15299661,65.8812071 0.239320707,63.7413805 0.97698173,59.4861127 C1.6171008,55.3100979 2.36695457,53.9262214 6.53077671,53.182464"></path>
		<path d="M16.4526223,46.8806442 C26.2799741,41.9669683 46.660146,29.2743216 51.5677255,27.8904451 C56.4814015,26.5004723 65.5588995,20.8491353 69.0886989,18.0691897 C72.5941129,15.2831476 83.8053412,8.89414966 85.9390714,7.50417682 C88.078898,6.11420398 97.8879607,7.50417682 89.4627745,13.1555137 C81.0192991,18.8129471 69.0886989,25.7567149 60.65132,30.6703908 C52.213941,35.6694159 28.3039696,48.270617 23.3963901,50.4043472 C18.4827142,52.5319811 6.53382489,51.7943201 16.4526223,46.8806442"></path>
		<path d="M100.027787,0.464086326 C101.429953,-0.182129116 105.673028,3.33547758 103.539298,6.11542326 C101.429953,8.88927256 98.6317181,11.0230028 95.7603268,6.11542326 C92.9864775,1.20174735 98.6317181,1.20174735 100.027787,0.464086326"></path>
		<path d="M114.107359,1.20235699 C123.197049,1.20235699 145.698759,4.72057332 152.746165,6.85979029 C159.702126,8.8898822 173.790841,11.0242221 176.564691,11.7673698 C179.429986,12.4135853 189.251241,12.4135853 191.378875,13.1573427 C193.427256,13.7974617 199.810158,16.675559 212.411359,18.0716282 C225.110102,19.4555047 232.785434,20.8515739 236.327426,22.2354503 C239.851129,23.7223555 237.723496,32.1475417 232.05387,30.6661233 C226.500075,29.2761505 203.339957,26.4962048 197.682524,25.7591534 C192.02509,25.1068416 180.819958,20.8515739 174.522406,20.1992621 C168.121215,19.4555047 152.002408,15.9318016 138.657449,14.5412191 C125.318587,13.1573427 116.149643,10.377397 112.619844,9.63363959 C109.102237,8.8898822 104.938415,1.20235699 114.107359,1.20235699"></path>
		<path d="M4.5006848,76.3474587 C4.5006848,71.4337828 12.18821,69.3000525 12.9319674,75.6951469 C13.5781828,81.9987956 14.3158439,92.5577121 14.9681557,100.988995 C15.7119131,109.426374 16.4495741,117.119995 17.0957895,122.765236 C17.8395469,128.325127 21.3571536,142.407747 22.0216582,146.675207 C22.7471265,150.832933 23.3994383,159.270312 23.3994383,164.183988 C23.3994383,169.097664 24.8808567,176.14507 24.1431957,179.662677 C23.3994383,183.174187 19.8818316,192.257781 17.8395469,181.784214 C15.7119131,171.225298 17.0957895,157.886435 15.7119131,154.362732 C14.3158439,150.832933 11.4444526,143.145408 11.4444526,137.500167 C11.4444526,131.842734 8.67060331,117.119995 8.01219513,113.596292 C7.28063047,110.072589 4.5006848,81.2550382 4.5006848,76.3474587"></path>
		<path d="M19.8818316,195.134659 C20.625589,192.257781 26.2769259,190.220983 28.3070178,193.73859 C30.4468444,197.26839 29.7884362,202.822184 24.8808567,203.565942 C19.8818316,204.218254 19.2295198,197.909118 19.8818316,195.134659"></path>
		<path d="M31.1784091,185.960229 C37.4881542,179.662677 55.7345959,169.841421 66.3057051,160.660285 C76.8646215,151.57669 95.7572787,138.884044 99.2809817,135.372533 C102.798588,131.842734 111.979725,134.714125 104.194658,141.017774 C96.5132288,147.321423 78.2545944,160.660285 70.4634308,166.97003 C62.782002,173.359028 41.7434219,187.350202 37.4881542,191.605469 C33.3182357,195.781484 24.8808567,192.257781 31.1784091,185.960229"></path>
		<path d="M113.36604,123.415719 C116.152082,124.159476 116.152082,129.810813 113.36604,131.200176 C110.586094,132.584662 105.672418,131.840905 106.330826,127.676473 C107.068487,123.415719 110.586094,122.768894 113.36604,123.415719"></path>
		<path d="M41.010638,202.177188 C50.8257971,204.957134 72.5959418,219.039754 79.6433479,221.813603 C86.6846577,224.599645 100.029616,231.634858 106.327169,235.158561 C112.624721,238.676168 128.097313,245.723574 132.364774,247.759762 C136.5225,249.893493 140.052299,250.631154 142.179933,252.764884 C144.313663,254.794976 141.448368,262.586139 135.876284,259.714748 C130.231044,256.934802 108.454802,245.723574 104.937196,243.589844 C101.431782,241.456114 88.0746305,234.4209 83.8071701,231.634858 C79.6433479,228.854913 73.992011,228.117252 68.4321197,225.33121 C62.7807827,222.563457 43.1382719,211.998444 36.7431775,208.474741 C30.4517215,204.957134 31.1771898,199.299701 41.010638,202.177188"></path>
		<path d="M137.918569,116.468293 C137.272353,123.418157 138.662326,136.763116 139.406084,140.286819 C140.052299,143.792233 142.838341,158.527164 142.179933,169.098273 C141.448368,179.663896 142.179933,193.002148 143.576002,200.037362 C144.953782,207.084768 145.69754,225.33121 145.69754,230.250982 C145.69754,235.158561 147.087512,241.456114 147.83127,242.852183 C148.477485,244.333601 152.751042,250.631154 153.391161,241.456114 C154.147111,232.373129 153.391161,214.126078 154.147111,208.474741 C154.799423,202.823404 153.391161,189.484542 152.007285,172.609784 C150.617312,155.741122 149.885747,141.762141 149.885747,137.500777 C149.885747,133.330858 151.263527,122.765845 148.477485,118.511187 C146.349851,111.463172 138.662326,109.426983 137.918569,116.468293"></path>
		<path d="M151.263527,255.541781 C153.391161,254.798024 160.45076,260.456067 157.652525,266.75301 C154.799423,273.063364 150.623408,270.276713 147.83127,265.369133 C144.953782,260.456067 149.221243,256.194093 151.263527,255.541781"></path>
		<path d="M166.090514,248.495595 C175.168012,237.936678 177.313935,240.808069 182.221514,236.552802 C187.129094,232.37069 206.765508,216.904194 213.812915,210.606642 C220.842032,204.217644 226.499465,200.693941 230.657191,197.26778 C234.930748,193.73798 241.246589,198.938186 234.930748,202.821575 C228.627099,206.71106 214.556672,220.513247 208.893142,228.115423 C203.339347,235.717599 198.328129,233.760663 192.024481,240.070408 C185.745217,246.367961 182.221514,251.281637 178.685619,252.769151 C175.168012,254.159124 172.394163,256.195313 169.602024,258.31685 C166.730633,260.45058 156.915474,259.066704 166.090514,248.495595"></path>
		<path d="M125.961145,128.324518 C130.228605,129.812032 147.828831,136.109585 159.704564,141.760922 C171.65955,147.320813 200.458812,159.269702 206.122341,162.799502 C211.761485,166.311012 234.190038,174.742295 237.06143,176.876025 C239.853568,178.912213 240.499783,189.483322 234.190038,186.703377 C227.88639,183.831985 210.286163,174.004634 199.087128,169.097054 C187.869803,164.183378 170.263481,155.745999 161.820005,153.618365 C153.394819,151.576081 137.269915,141.760922 133.020743,138.883434 C128.850825,136.109585 123.931053,136.109585 121.809515,132.585882 C119.663592,129.068275 121.809515,126.940641 125.961145,128.324518"></path>
		<path d="M104.935976,18.8098989 C106.332046,27.2411815 107.715922,36.3186795 107.715922,43.3599893 C107.715922,50.4012991 109.105895,61.6125273 109.855749,65.1362304 C110.587313,68.6538371 111.977286,80.6088228 111.233529,82.742553 C110.587313,84.7787413 111.233529,101.641306 111.233529,105.908767 C111.233529,110.072589 112.623502,115.730022 108.453583,115.730022 C104.192219,115.730022 103.539907,112.200833 103.539907,104.512698 C103.539907,96.7276306 100.680709,79.8711617 100.680709,72.8237556 C100.680709,65.8799878 99.2846396,51.0475145 99.2846396,41.2262591 C99.2846396,31.4111 97.2423549,20.8460871 96.5107903,18.0661415 C95.7609365,15.2800994 103.539907,10.3786163 104.935976,18.8098989"></path>
	</g>
</svg>

<svg width="256" height="271" viewBox="0 0 256 271" xmlns="http://www.w3.org/2000/svg" preserveAspectRatio="xMinYMin meet"><g fill="#E92200"><path d="M23.22 60.23c7.872 2.03 39.195 11.49 58.002 17.234 18.808 5.736 32.884 9.448 43.82 12.497 11.03 3.16 10.206 11.78 1.58 11.035-8.62-.835-18.813-5.468-29-9.46-10.2-3.878-42.26-13.243-58.757-18.802-16.387-5.47-20.38-5.47-22.685-8.62-2.323-3.055-.835-5.933 7.04-3.884"/><path d="M140.794 94.693c7.035-.743 7.78 6.298 6.206 10.193-1.573 3.89-9.352 5.463-10.924 1.58-2.415-5.475-2.415-10.944 4.718-11.773M233.174 38.263c-4.64 3.987-18.807 12.607-28.915 19.65-10.188 7.04-29 19.55-34.56 22.695-5.457 3.146-12.5 7.048-17.23 10.925-4.64 3.993-3.06 11.034 3.988 8.627 7.03-2.317 14.082-6.206 18.8-10.944 4.634-4.718 9.36-7.87 14.083-10.924 4.732-3.146 40.774-29.83 47.815-34.567 7.048-7.78.744-9.357-3.98-5.462M251.25 25.014c3.882 0 5.455 8.62 1.572 10.93-3.89 2.317-9.456 2.317-9.456-5.462 0-7.883 3.987-5.468 7.883-5.468M248.93 41.41c3.06 0 4.628 6.31 3.896 11.028-.835 4.633.732 35.213 1.567 46.144.744 11.028.744 15.76-.835 19.648-1.567 3.89 0 10.187 0 20.38 0 10.2-1.567 23.447-2.31 29.007-.83 5.462-1.574 9.352-4.738 8.614-3.146-.828-3.146-4.73-3.146-11.033 0-6.2 0-39.188.842-46.967.725-7.876.725-11.028.725-17.24V51.61c0-6.305.85-10.2 4-10.2M246.51 182.44c4.737-.75 6.316 7.87 3.908 10.186-2.33 2.414-7.803 1.58-9.37-2.317-1.573-3.89.744-7.036 5.462-7.87M6.53 53.182c4.274-.652 5.658 7.048 2.14 9.816C5.154 65.88.24 63.74.978 59.486c.64-4.176 1.39-5.56 5.554-6.304M16.453 46.88c9.827-4.913 30.207-17.606 35.115-18.99 4.913-1.39 13.99-7.04 17.52-9.82 3.506-2.787 14.717-9.176 16.85-10.566 2.14-1.39 11.95 0 3.525 5.652-8.444 5.657-20.374 12.6-28.812 17.514-8.436 5-32.346 17.6-37.254 19.734-4.913 2.128-16.862 1.39-6.943-3.523M100.028.464c1.402-.646 5.645 2.87 3.51 5.65-2.108 2.775-4.906 4.91-7.778 0-2.774-4.912 2.872-4.912 4.268-5.65M114.107 1.202c9.09 0 31.592 3.52 38.64 5.658 6.955 2.03 21.044 4.164 23.818 4.907 2.865.647 12.686.647 14.814 1.39 2.047.64 8.43 3.52 21.03 4.915 12.7 1.384 20.375 2.78 23.917 4.163 3.524 1.487 1.396 9.913-4.273 8.43-5.554-1.39-28.714-4.17-34.37-4.906-5.66-.653-16.864-4.908-23.162-5.56-6.4-.744-22.52-4.268-35.865-5.66-13.338-1.383-22.507-4.163-26.037-4.906-3.518-.744-7.682-8.432 1.487-8.432M4.5 76.347c0-4.913 7.688-7.047 8.432-.652.646 6.304 1.384 16.863 2.036 25.294.744 8.436 1.482 16.13 2.128 21.775.744 5.56 4.26 19.643 4.926 23.91.725 4.158 1.377 12.595 1.377 17.51 0 4.913 1.48 11.96.743 15.478-.744 3.51-4.26 12.595-6.303 2.12-2.128-10.558-.744-23.897-2.128-27.42-1.396-3.53-4.268-11.218-4.268-16.863 0-5.657-2.773-20.38-3.432-23.904-.73-3.523-3.51-32.34-3.51-37.25M19.882 195.135c.744-2.877 6.395-4.914 8.425-1.396 2.14 3.528 1.48 9.082-3.426 9.826-4.998.652-5.65-5.657-4.998-8.43M31.178 185.96c6.31-6.297 24.557-16.12 35.128-25.3 10.56-9.083 29.45-21.776 32.975-25.287 3.52-3.53 12.7-.66 4.915 5.645-7.682 6.303-25.94 19.642-33.732 25.952-7.68 6.39-28.72 20.38-32.975 24.635-4.17 4.176-12.607.653-6.31-5.645M113.366 123.416c2.786.743 2.786 6.395 0 7.784-2.78 1.385-7.694.64-7.035-3.524.738-4.26 4.256-4.907 7.036-4.26M41.01 202.177c9.816 2.78 31.586 16.863 38.633 19.637 7.042 2.786 20.387 9.82 26.684 13.345 6.298 3.516 21.77 10.564 26.038 12.6 4.157 2.133 7.687 2.87 9.815 5.005 2.134 2.03-.732 9.82-6.304 6.95-5.645-2.78-27.42-13.99-30.94-16.125-3.504-2.134-16.86-9.17-21.13-11.955-4.163-2.78-9.814-3.518-15.374-6.304-5.65-2.767-25.294-13.332-31.69-16.855-6.29-3.518-5.565-9.175 4.27-6.298M137.92 116.468c-.648 6.95.742 20.295 1.486 23.82.646 3.504 3.432 18.24 2.774 28.81-.732 10.566 0 23.904 1.396 30.94 1.378 7.047 2.122 25.293 2.122 30.213 0 4.91 1.39 11.206 2.133 12.602.647 1.482 4.92 7.78 5.56-1.396.757-9.083 0-27.33.757-32.98.652-5.653-.756-18.99-2.14-35.866-1.39-16.87-2.12-30.848-2.12-35.11 0-4.17 1.377-14.734-1.41-18.99-2.127-7.047-9.815-9.083-10.558-2.042M151.264 255.542c2.127-.744 9.187 4.914 6.39 11.21-2.855 6.31-7.03 3.525-9.823-1.383-2.876-4.914 1.39-9.176 3.434-9.828M166.09 248.496c9.078-10.56 11.224-7.688 16.132-11.943 4.907-4.182 24.544-19.65 31.59-25.946 7.03-6.39 12.687-9.913 16.845-13.34 4.274-3.53 10.59 1.67 4.274 5.555-6.303 3.89-20.373 17.69-26.037 25.293-5.554 7.603-10.565 5.646-16.87 11.955-6.278 6.298-9.8 11.212-13.337 12.7-3.518 1.39-6.292 3.425-9.084 5.547-2.87 2.134-12.687.75-3.51-9.82"/><path d="M125.96 128.325c4.27 1.487 21.87 7.785 33.745 13.436 11.955 5.56 40.754 17.51 46.417 21.04 5.64 3.51 28.068 11.942 30.94 14.076 2.792 2.036 3.438 12.607-2.872 9.827-6.304-2.87-23.904-12.698-35.103-17.606-11.217-4.914-28.824-13.35-37.267-15.48-8.425-2.04-24.55-11.856-28.8-14.734-4.17-2.773-9.09-2.773-11.21-6.297-2.146-3.518 0-5.645 4.15-4.26M104.936 18.81c1.396 8.43 2.78 17.51 2.78 24.55 0 7.04 1.39 18.253 2.14 21.776.73 3.518 2.12 15.473 1.378 17.607-.647 2.036 0 18.898 0 23.166 0 4.163 1.39 9.82-2.78 9.82-4.262 0-4.914-3.53-4.914-11.217 0-7.785-2.86-24.642-2.86-31.69 0-6.943-1.395-21.775-1.395-31.597 0-9.815-2.043-20.38-2.774-23.16-.75-2.786 7.03-7.687 8.426.744"/></g></svg>
